StripePaymentSheet/StripePaymentSheet/Resources/StripePaymentSheet.xcassets/PaymentMethods/icon-pm-bancontact.imageset/icon-pm-bancontact-mod.svg

<svg fill="none" height="16" viewBox="0 0 27 16" width="27" xmlns="http://www.w3.org/2000/svg" xmlns:xlink="http://www.w3.org/1999/xlink"><linearGradient id="a" gradientUnits="userSpaceOnUse" x1="3.52836" x2="12.6726" y1="10.7661" y2="7.36967"><stop offset="0" stop-color="#005ab9"/><stop offset="1" stop-color="#1e3764"/></linearGradient><linearGradient id="b" gradientUnits="userSpaceOnUse" x1="14.2568" x2="23.9662" y1="8.45847" y2="5.14587"><stop offset="0" stop-color="#fba900"/><stop offset="1" stop-color="#ffd800"/></linearGradient><path d="m13.9998 9.02282c-1.7833 2.36988-3.9383 5.02288-8.03401 5.02288h-4.965791c-.552284 0-.999999-.4478-.999999-1v-5.02287c0-.55229.447715-1 1-1h12.0002c1.7833-2.36989 3.9383-5.02283 8.034-5.02283h4.9658c.5523 0 1 .44772 1 1v5.02282c0 .55229-.4477 1-1 1z" fill="#fff"/><path d="m5.96579 13.0457c3.7671 0 5.65061-2.5115 7.53421-5.02287h-12.5v5.02287z" fill="url(#a)"/><path d="m21.0342 3c-3.7671 0-5.6506 2.51141-7.5342 5.02282h12.5v-5.02282z" fill="url(#b)"/></svg>

<svg width="27" height="16" viewBox="0 0 27 16" fill="none" xmlns="http://www.w3.org/2000/svg">
<path d="M13.9998 9.02282C12.2165 11.3927 10.0615 14.0457 5.96579 14.0457H0.999999C0.447715 14.0457 0 13.5979 0 13.0457V8.02283C0 7.47054 0.447715 7.02283 1 7.02283H13.0002C14.7835 4.65294 16.9385 2 21.0342 2H26C26.5523 2 27 2.44772 27 3V8.02282C27 8.57511 26.5523 9.02282 26 9.02282H13.9998Z" fill="white"/>
<path d="M5.96579 13.0457C9.73289 13.0457 11.6164 10.5342 13.5 8.02283H1V13.0457H5.96579Z" fill="url(#paint0_linear_788_23083)"/>
<path d="M21.0342 3C17.2671 3 15.3836 5.51141 13.5 8.02282H26V3H21.0342Z" fill="url(#paint1_linear_788_23083)"/>
<defs>
<linearGradient id="paint0_linear_788_23083" x1="3.52836" y1="10.7661" x2="12.6726" y2="7.36967" gradientUnits="userSpaceOnUse">
<stop stop-color="#005AB9"/>
<stop offset="1" stop-color="#1E3764"/>
</linearGradient>
<linearGradient id="paint1_linear_788_23083" x1="14.2568" y1="8.45847" x2="23.9662" y2="5.14587" gradientUnits="userSpaceOnUse">
<stop stop-color="#FBA900"/>
<stop offset="1" stop-color="#FFD800"/>
</linearGradient>
</defs>
</svg>
